X: 1925
T: Var mı Cânâ Derd-i Aşkın Çâresi
C: Hacı Ârif Bey
O: Turkey
F: http://compmusic.upf.edu/node/140
N: hicaz-humayun--sarki--agirduyek--var_mi_cana--haci_arif_bey
N: makam= hicaz-humayun
N: form= sarki
N: usul= agirduyek = 8/4
M: 8/4
L: 1/16
K: C _7/8B ^c  
Q: 1/4=72
%%MIDI tuningsystem comma53
c4 d2d2 d4 c4 d2e2 d2c2 d2f2 e2d2  | \
w:  ARANAĞME  | 
c2BA B2c2 d2cB A4 e2^f2 g2fe eddc d4  | 
w:   | 
z4 e2^f2 a2g2 g2^1/4f2 =f2e2 d2ef edcB c2d2  | \
w:   | 
cdcB A4 B6AB c6BA A8  | 
w:   | 
c4 d2d2 d4 c4 d2e2 d2c2 d2f2 e2d2  | \
w:  ARANAĞME  | 
c2BA B2c2 d2cB A4 e2^f2 g2fe eddc d4  | 
w:   | 
z4 e2^f2 a2g2 g2^1/4f2 =f2e2 d2ef edcB c2d2  | \
w:   | 
cdcB A4 B6AB c6BA A8  | 
w:   | 
z4 d8 c4 d2f2 e2d2 c3B A4  | A2z2 d2c2 B2A2 e2d2 c2B4A2 A8  | 
w:  Var  mı  câ *  *  *  nâ   |  *  derd_ *  *  *  i  *  aş *  *  kın   | 
z4 d4 d2cd e2{f}ed c2Bc d2cB A4 f2ed  | \
w:  ça *  *  *  *  *  *  *  *  *  *  *  *  *  *  re  | 
c2d4cB c6BA f6ed d8  | 
w:  si    | 
z4 e8 e4 f3e d2c2 d2cd c2B2  | A4 B2c2 B2A2 B4 B2AB c2BA AGG^F c2BA  | 
w:  Tiğ_ i  hic *  *  *  râ  |  *  nın *  *  *  o *  nul *  *  *  *  maz   | 
G4 ^F2G2 A4 B2d2 c2B2 A2G2 A2B2 c2BA  | \
w:  *  yâ *  *  *  *  *  *  *  *  *  *  *  re  | 
G2A6 B2A2 d4 dcBc cB2A A8  | 
w:  si    | 
z4 d8 e4 e2^f2 g2fe e8  | z4 e2^f2 a2g2 g2f2 f2e2 e2f2 g2fe d4  | 
w:  Bak  ne  ha *  *  *  *  le   |  gir *  *  *  di  *  dil  *  *  *  bî  | 
d4 a2g2 g2^f4e2 e2f2 e2d2 e2d2 g2fe  | \
w:  *  ça *  *  *  *  *  *  *  *  *  *  *  re  | 
e2d4dc c6BA f6ed d8  | 
w:  si    | 
z4 e8 e4 f3e d2c2 d2cd c2B2  | A4 B2c2 B2A2 B4 B2AB c2BA AGG^F c2BA  | 
w:  Tiğ_ i  hic *  *  *  râ  |  *  nın *  *  *  o *  nul *  *  *  *  maz   | 
G4 ^F2G2 A4 B2d2 c2B2 A2G2 A2B2 c2BA  | \
w:  *  yâ *  *  *  *  *  *  *  *  *  *  *  re  | 
G2A6 B2A2 d4 dcBc cB2A A8  | 
w:  si    | 
|


